icons/evolvere-blue-folders-flat-vivid-dark-fallback/mimetypes/64/text-changelog.svg

<svg xmlns="http://www.w3.org/2000/svg" viewBox="0 0 64 64"><path d="m4 0h60v62h-60z" fill="#4c8d1c"/><path d="m4 0h60l-60 62z" fill="#d9540c" color="#000"/><path d="m60 2v31l-24.322 29h28.322v-25-31l-4-4" fill="#235400" fill-opacity=".244"/><path d="m0 2h60v31l-26 31h-34z" fill="#76ba35"/><path d="m34 64l26-31c-2.329 2.776-4.361 3-11 3h-12v15c0 6.644.044 9.37-3 13" fill="#5b9d23"/><g color="#000"><path d="m5 8v12h.25.75 7 1 7 1v-2-10h-16zm1 2h7v3h-7zm8 0h7v3h-7zm-8 5h7v3h-7zm8 0h7v3h-7z" fill="#e9f3d9"/><path d="m0 2v62l60-62h-60" fill="#f4732d"/><path d="m5 7v2h16v-2zm7 8v7h-7v2h7v7h2v-7h7v-2h-7v-7z" fill="#f8f2e0"/></g></svg>

<?xml version="1.0" encoding="UTF-8" standalone="no"?>
<!-- Created with Inkscape (http://www.inkscape.org/) -->

<svg
   xmlns:dc="http://purl.org/dc/elements/1.1/"
   xmlns:cc="http://creativecommons.org/ns#"
   xmlns:rdf="http://www.w3.org/1999/02/22-rdf-syntax-ns#"
   xmlns:svg="http://www.w3.org/2000/svg"
   xmlns="http://www.w3.org/2000/svg"
   xmlns:sodipodi="http://sodipodi.sourceforge.net/DTD/sodipodi-0.dtd"
   xmlns:inkscape="http://www.inkscape.org/namespaces/inkscape"
   version="1.1"
   width="64"
   height="64"
   id="svg13094"
   inkscape:version="0.48.4 r9939"
   sodipodi:docname="text-changelog.svg">
  <sodipodi:namedview
     pagecolor="#ffffff"
     bordercolor="#666666"
     borderopacity="1"
     objecttolerance="10"
     gridtolerance="10"
     guidetolerance="10"
     inkscape:pageopacity="0"
     inkscape:pageshadow="2"
     inkscape:window-width="1920"
     inkscape:window-height="1022"
     id="namedview44"
     showgrid="true"
     inkscape:snap-bbox="true"
     inkscape:bbox-paths="true"
     inkscape:bbox-nodes="true"
     inkscape:snap-bbox-edge-midpoints="true"
     inkscape:snap-bbox-midpoints="true"
     inkscape:object-paths="true"
     inkscape:snap-intersection-paths="true"
     inkscape:object-nodes="true"
     inkscape:snap-smooth-nodes="true"
     inkscape:snap-midpoints="true"
     inkscape:snap-object-midpoints="true"
     inkscape:snap-center="true"
     inkscape:zoom="10.429825"
     inkscape:cx="27.905039"
     inkscape:cy="33.715559"
     inkscape:window-x="-5"
     inkscape:window-y="23"
     inkscape:window-maximized="1"
     inkscape:current-layer="svg13094"
     inkscape:showpageshadow="true">
    <inkscape:grid
       type="xygrid"
       id="grid3803"
       empspacing="5"
       visible="true"
       enabled="true"
       snapvisiblegridlinesonly="true" />
  </sodipodi:namedview>
  <defs
     id="defs11">
    <linearGradient
       x1="31"
       y1="64"
       x2="31"
       y2="2"
       id="linearGradient3984-4"
       gradientUnits="userSpaceOnUse">
      <stop
         id="stop3099-5"
         style="stop-color:#7dc335;stop-opacity:1"
         offset="0" />
      <stop
         id="stop3875-5"
         style="stop-color:#7dc335;stop-opacity:1"
         offset="0.5" />
      <stop
         id="stop3873-8"
         style="stop-color:#6eae35;stop-opacity:1"
         offset="0.5" />
      <stop
         id="stop3101-9"
         style="stop-color:#6eae35;stop-opacity:1"
         offset="1" />
    </linearGradient>
    <linearGradient
       gradientTransform="translate(0,-64)"
       gradientUnits="userSpaceOnUse"
       id="linearGradient3829"
       y2="88"
       x2="32.669781"
       y1="110.2137"
       x1="48.917568">
      <stop
         offset="0"
         style="stop-color:#f47a37;stop-opacity:1"
         id="stop3831" />
      <stop
         offset="0.50050378"
         style="stop-color:#f47a37;stop-opacity:1"
         id="stop3833" />
      <stop
         offset="0.5"
         style="stop-color:#ed6c27;stop-opacity:1"
         id="stop3835" />
      <stop
         offset="1"
         style="stop-color:#ed6c27;stop-opacity:1"
         id="stop3837" />
    </linearGradient>
  </defs>
  <metadata
     id="metadata13099">
    <rdf:RDF>
      <cc:Work
         rdf:about="">
        <dc:format>image/svg+xml</dc:format>
        <dc:type
           rdf:resource="http://purl.org/dc/dcmitype/StillImage" />
        <dc:title />
      </cc:Work>
    </rdf:RDF>
  </metadata>
  <path
     inkscape:connector-curvature="0"
     d="M 4,0 64,0 64,62 4,62 z"
     id="path3960-5"
     style="fill:#4c8d1c;fill-opacity:1;fill-rule:nonzero" />
  <path
     d="M 4,0 64,0 4,62 z"
     id="path3960"
     style="fill:#d9540c;fill-opacity:1;fill-rule:nonzero;color:#000000;stroke-width:1;stroke-linecap:butt;stroke-linejoin:miter;stroke-miterlimit:4;stroke-opacity:1;stroke-dasharray:none;stroke-dashoffset:0;marker:none;visibility:visible;display:inline;overflow:visible;enable-background:accumulate"
     inkscape:connector-curvature="0"
     sodipodi:nodetypes="cccc" />
  <path
     inkscape:connector-curvature="0"
     style="fill:#235400;fill-opacity:0.24385965;fill-rule:nonzero"
     d="M 60,2 60,33 35.677734,62 64,62 64,37 64,6 60,2 z"
     id="path3900" />
  <path
     inkscape:connector-curvature="0"
     d="M 0,2 60,2 60,33 34,64 0,64 z"
     id="path3982-7"
     style="fill:#76ba35;fill-rule:nonzero;fill-opacity:1" />
  <path
     inkscape:connector-curvature="0"
     d="M 34,64 60,33 c -2.328567,2.776369 -4.36141,3 -11,3 H 37 v 15 c 0,6.64407 0.04437,9.37018 -3,13 z"
     id="path4278"
     style="fill:#5b9d23;fill-opacity:1;fill-rule:nonzero" />
  <path
     style="color:#000000;fill:#e9f3d9;fill-opacity:1;fill-rule:nonzero;stroke:none;stroke-width:1;marker:none;visibility:visible;display:inline;overflow:visible;enable-background:accumulate"
     d="m 5,8 0,12 0.25,0 0.75,0 7,0 1,0 7,0 1,0 0,-2 L 22,8 6,8 z m 1,2 7,0 0,3 -7,0 z m 8,0 7,0 0,3 -7,0 z m -8,5 7,0 0,3 -7,0 z m 8,0 7,0 0,3 -7,0 z"
     id="path3548"
     inkscape:connector-curvature="0"
     sodipodi:nodetypes="cccccccccccccccccccccccccccccccc" />
  <path
     style="fill:#f4732d;fill-rule:nonzero;color:#000000;fill-opacity:1;stroke:none;stroke-width:1;marker:none;visibility:visible;display:inline;overflow:visible;enable-background:accumulate;stroke-linecap:butt;stroke-linejoin:miter;stroke-miterlimit:4;stroke-opacity:1;stroke-dasharray:none;stroke-dashoffset:0"
     d="M 0 2 L 0 64 L 60 2 L 0 2 z "
     id="path3982" />
  <path
     inkscape:connector-curvature="0"
     style="color:#000000;fill:#f8f2e0;fill-opacity:1;fill-rule:nonzero;stroke:none;stroke-width:1;marker:none;visibility:visible;display:inline;overflow:visible;enable-background:accumulate"
     d="m 5,7 0,2 16,0 0,-2 z m 7,8 0,7 -7,0 0,2 7,0 0,7 2,0 0,-7 7,0 0,-2 -7,0 0,-7 z"
     id="rect3052"
     sodipodi:nodetypes="cccccccccccccccccc" />
</svg>
